X:1
T:Madame Del Caro's Hornpipe. EHo.026
T:Madame Del Caro's Hornpipe. EHo.026
T:Barbini
C:Barbini
L:1/8
Q:1/4=120
M:2/4
K:A
V:1 treble 
V:1
 A>ce>a | g>fe>f | e>dc>B | c>d e2 | A>ce>a | g>fe>d | c>BA>G | A2 A2 :: A>ce>a | %9
 f3/2g/4a/ f3/2g/4a/ | E>GB>d | (c3/2d/4e/) (c3/2d/4e/) | A>ce>a | (f3/2g/4a/) (f3/2g/4a/) | %14
 c>BA>G | A2 A2 ::"^var 1st" A>ec>a | g>ed>B | e>cd>B | c>f e2 | A>ec>a | g>fe>d | c>eG>B | %23
 A2 A2 :: A>ec>a | (3faa (3faa | E>BG>d | (3cee (3cee | A>ec>a | (3faa (3faa | c>eG>B | A2 A2 :: %32
 (ac'ba | agfe) | (edcB) | (cd^de) | (ac'ba | agfe) | (edcB) | AECA, :: aecA | (ffga) | dBGE | %43
 (cd^de) | ac'ba | (fg)aa | (ce)(Be) | A2 A2 :|[K:Amin] A>ce>a | e>fe>f | e>fe>d |"^tr" c2 B2 | %52
 d>fe>d | c>ed>c | B>AB>G | A2 z2 | A>ce>a | e>fe>f | e>fe>d |"^tr" c2 B2 | A>^cd>c | d>fe>=c | %62
 B>AB>d | (d2 c2) |: G>B d>e | (e/f/4g3/2) (e/f/4g3/2) :| c>eg>c' | c'2 c'2 | e>gd>g | c2 z2 | %70
 a>c'b>a | a>^g^f>e | e>dc>B | c>d e | a>c'b>a | a>^g^f>e | e>dc>B | A>ef>e | c>ef>e | c>ef>e | %80
 B>ef>e | c>ef>e | d>ef>e | e>e^f>e | e>e^f>!fermata!e ||[K:A]"^Major" e>c'b>a | a>gf>e | e>dc>B | %88
 c>d e2 | A>ce>a | g>fe>d | c>BA>G | A>EC>A, | A>ce>a | f/g/4a3/2 f/g/4a3/2 | E>GB>d | %96
 (c/d/4e3/2) (c/d/4e3/2) | A>ce>a | f/g/4a3/2 f/g/4a3/2 | e>cB>c | A2 A2 | E>DB,>D | C2 C2 | %103
 e>dB>G | A2 A2 | E>GB>d | (c/d/4e3/2) (c/d/4e3/2) | e>gb>d' | c'2 c'2 | E>DB,>G, | A,2 A,2 | %111
 A>ce>a | f/g/4a3/2 f/g/4a3/2 | E>GB>d | (c/d/4e3/2) (c/d/4e3/2) | A>ce>a | (f/g/4a3/2) (B/c<d) | %117
 (c/d/4e3/2) (G/A/4B3/2) | A2 a2 | A2 z2 |] %120

